X: 3055
T: Beach, The
R: jig
M: 6/8
K: Gmajor
|:GAB dBd|ded B2A|GAB dBd|dgf edB|
GAB dBd|ded BAG|c2B AGE|c2B AGE:|
|:ecc fdd|g2d edB|ecc fdd|gab agf|
ecc fdd|g2d edB|c2B AGE|c2B AGE:|

